X:44
T:Fly Around My Pretty Little Miss
M:4/4
L:1/8
R:Reel
N:Rayna Gellert, Ways of the World
N:Yodel-Ay-Hee 032
N:Transcribed by Bruce Thomson
K:G
|:â€Gâ€[B2G2]A2â€³Câ€E4|EFEDâ€Gâ€B,4|D2D2EDEG|[B3G3][BG][B2G2][BG]-|[B2G2]A2â€³Câ€E4|EFED â€œGâ€B,4|
â€œDâ€D2D2EDEF|â€Gâ€[G3G,3][GG,][G4G,4]:||:â€Dâ€dBdB dBdB|AF3D4|d2d3BA2|â€Gâ€[B3D3][BD][B4D4]|
â€œDâ€dBdB dBdB|AF3D4|D2D2EDEF|â€Gâ€[G3G,3][GG,][G4G,4]:|

